X:1
T:Title
%%score ( 1 2 ) ( 3 4 )
L:1/8
Q:1/4=113
M:9/8
K:Eb
V:1 treble nm="Grand Piano, Soprano"
V:2 treble 
V:3 bass nm="Choir Pad, Bass"
V:4 bass 
V:1
 [GB]3- [GB]2 [GB] [GB][EG]E | [DF]3 E3 E3 | [Ec]3- [Ec]2 [Ec] cd[Ec] | [EB]6- [EB]3/2 z/ z | %4
w: By~Charles~Hutchinson~Gabriel * * * * *||||
 [DB]3- [DB]2 [DF] [DF][CE][DF] | [EG]3 [GB]3 [Gc]3 | [Fd]3- [Fd][Ec][DB] [Ec]2 [Fd] | %7
w: |||
 [DB]6 [AB]3 | [Ge]3- [Ge]2 [Be] [Ae][Ad][Ac] | [GB]3 [EG]6 | [DB]3- [DB][DF][EG] [FA][GB][FA] | %11
w: ||||
 [EG]6- [EG]3/2 z/ z | [Ec]3- [Ec]2 [Ec] [Ec][Ee][Ec] | [EB]3 [EG]3 E3 | %14
w: |||
 [DF]3- [DF][EG][GB] [FA][EG][DF] | E6- E3/2 z/ z |] %16
w: ||
V:2
 x9 | x9 | z3 z3 .E3 | x9 | x9 | x9 | x9 | x9 | x9 | x9 | x9 | x9 | x9 | x9 | x9 | x9 |] %16
V:3
 [E,E]3- [E,E]2 [E,E] [E,E][E,B,][E,G,] | [B,,A,]3 [E,G,]3 [E,G,]3 | %2
 [A,,A,]3- [A,,A,]2 [A,,A,] A,B,[A,,A,] | [E,G,]6- [E,G,]3/2 z/ z | %4
 [B,,F,]3- [B,,F,]2 [B,,B,] [B,,A,][B,,G,][B,,B,] | [E,B,]3 [E,E]3 [E,B,]3 | %6
 B,3- B,=A,[F,B,] [F,A,]2 [F,A,] | [B,,B,]6 B,3 | [E,B,]3- [E,B,]2 [G,_D] [A,C][A,C][A,E] | %9
 [E,E]3 [E,B,]6 | [B,,B,]3- [B,,B,][B,,B,][B,,B,] [B,,B,][B,,B,][B,,B,] | [E,B,]6- [E,B,]3/2 z/ z | %12
 A,3- A,3/2 z/ A, A,[A,C]A, | [E,G,]3 [E,B,]3 [E,G,]3 | %14
 [B,,B,]3- [B,,B,][B,,B,][B,,B,] [B,,B,]2 [B,,B,] | [E,G,]6- [E,G,]3/2 z/ z |] %16
V:4
 x9 | x9 | z3 z3 .A,,3 | x9 | x9 | x9 | F,6 z3 | x9 | x9 | x9 | x9 | x9 | x9 | x9 | x9 | x9 |] %16

